public/images/ipfs-icon.svg

<svg fill="none" height="50" viewBox="0 0 99 50" width="99" xmlns="http://www.w3.org/2000/svg"><g fill="#fff"><path d="m19.6663 22.438-12.59257-7.1866c.0283-.2237.0283-.4474 0-.6711l12.59257-7.17259c1.0612.769 2.5044.769 3.5656 0l12.5785 7.17259c-.0283.2237-.0283.4474 0 .6711l-12.5785 7.1726c-1.0612-.769-2.5044-.769-3.5656.014z"/><path d="m19.822 42.7115c-.2123.0839-.3962.1958-.5801.3356l-12.59267-7.1866c.14149-1.3003-.58011-2.5307-1.78277-3.048v-14.3591c.21223-.0839.39617-.1958.5801-.3356l12.57844 7.1726c-.1415 1.3003.5801 2.5307 1.7828 3.048v14.3731z"/><path d="m38.0319 32.8127c-1.2027.5173-1.9384 1.7617-1.7828 3.048l-12.5784 7.1726c-.184-.1259-.3821-.2377-.5801-.3356l-.0283-14.2613c1.2026-.5173 1.9384-1.7617 1.7827-3.048l12.5926-7.2564c.184.1258.3821.2376.5802.3355v14.3452z"/><path d="m21.4492 2.61214 19.6105 11.18536v22.3706l-19.6105 11.1853-19.61056-11.1713v-22.3846zm0-2.097247-.9197.531307-19.610547 11.1853-.91968542.5173v1.0487 22.3706 1.0486l.91968542.5313 19.610547 11.1854.9197.5313.9197-.5313 19.6105-11.1854.9197-.5313v-1.0486-22.3706-1.0487l-.9197-.5313-19.6105-11.18529z"/><path d="m57.1222 16.2896h-3.5971v17.4005h3.5971z"/><path d="m63.3946 33.6901v-6.3847c.8768.0675 1.776.0675 2.5179.0675 5.1258 0 6.6095-2.5404 6.6095-5.6653 0-3.7994-2.7202-5.418-6.9017-5.418h-5.8227v17.4005zm1.9334-8.8352c-.6744 0-1.6411 0-1.9559-.0224v-5.9126h2.2482c2.1582 0 3.3947 1.0341 3.3947 2.9225v.045c.0224 1.4838-.5171 2.9675-3.687 2.9675z"/><path d="m84.8192 16.2896h-10.9259v17.4005h3.597v-7.6661h6.8344v-2.6079h-6.8569v-4.4738h7.1041z"/><path d="m96.6614 19.9346.9113-2.3216c-1.3452-.9763-3.1894-1.3234-5.4892-1.3234-3.3629 0-6.1184 1.5621-6.1184 4.7732 0 2.8856 2.1263 4.0138 4.2308 4.7081l2.1263.716c1.4536.499 2.6469.9763 2.6469 2.5385 0 1.4319-1.2367 1.996-3.1243 1.996-1.9092 0-3.9487-.5641-5.1203-1.3018l-.9113 2.5168c1.5188.9764 3.4498 1.4537 6.0316 1.4537 3.6884 0 6.5307-1.6272 6.5307-5.0553 0-3.2111-2.4517-4.2308-4.9251-5.0553l-2.2998-.7593c-.9981-.3255-1.7575-.7811-1.7575-2.0612 0-1.3018 1.0632-1.8225 2.6687-1.8225 1.9527-.0651 3.4714.3038 4.5996.9981z"/></g></svg>

<svg width="99" height="50" viewBox="0 0 99 50" fill="none" xmlns="http://www.w3.org/2000/svg">
<path d="M19.6663 22.438L7.07373 15.2514C7.10203 15.0277 7.10203 14.804 7.07373 14.5803L19.6663 7.40771C20.7275 8.17671 22.1707 8.17671 23.2319 7.40771L35.8104 14.5803C35.7821 14.804 35.7821 15.0277 35.8104 15.2514L23.2319 22.424C22.1707 21.655 20.7275 21.655 19.6663 22.438Z" fill="white"/>
<path d="M19.822 42.7115C19.6097 42.7954 19.4258 42.9073 19.2419 43.0471L6.64923 35.8605C6.79072 34.5602 6.06912 33.3298 4.86646 32.8125V18.4534C5.07869 18.3695 5.26263 18.2576 5.44656 18.1178L18.025 25.2904C17.8835 26.5907 18.6051 27.8211 19.8078 28.3384V42.7115H19.822Z" fill="white"/>
<path d="M38.0319 32.8127C36.8292 33.33 36.0935 34.5744 36.2491 35.8607L23.6707 43.0333C23.4867 42.9074 23.2886 42.7956 23.0906 42.6977L23.0623 28.4364C24.2649 27.9191 25.0007 26.6747 24.845 25.3884L37.4376 18.132C37.6216 18.2578 37.8197 18.3696 38.0178 18.4675V32.8127H38.0319Z" fill="white"/>
<path d="M21.4492 2.61214L41.0597 13.7975V36.1681L21.4492 47.3534L1.83864 36.1821V13.7975L21.4492 2.61214ZM21.4492 0.514893L20.5295 1.0462L0.918953 12.2315L-0.000732422 12.7488V13.7975V36.1681V37.2167L0.918953 37.748L20.5295 48.9334L21.4492 49.4647L22.3689 48.9334L41.9794 37.748L42.8991 37.2167V36.1681V13.7975V12.7488L41.9794 12.2175L22.3689 1.03221L21.4492 0.514893Z" fill="white"/>
<path d="M57.1222 16.2896H53.5251V33.6901H57.1222V16.2896Z" fill="white"/>
<path d="M63.3946 33.6901V27.3054C64.2714 27.3729 65.1706 27.3729 65.9125 27.3729C71.0383 27.3729 72.522 24.8325 72.522 21.7076C72.522 17.9082 69.8018 16.2896 65.6203 16.2896H59.7976V33.6901H63.3946ZM65.328 24.8549C64.6536 24.8549 63.6869 24.8549 63.3721 24.8325V18.9199H65.6203C67.7785 18.9199 69.015 19.954 69.015 21.8424V21.8874C69.0374 23.3712 68.4979 24.8549 65.328 24.8549Z" fill="white"/>
<path d="M84.8192 16.2896H73.8933V33.6901H77.4903V26.024H84.3247V23.4161H77.4678V18.9423H84.5719L84.8192 16.2896Z" fill="white"/>
<path d="M96.6614 19.9346L97.5727 17.613C96.2275 16.6367 94.3833 16.2896 92.0835 16.2896C88.7206 16.2896 85.9651 17.8517 85.9651 21.0628C85.9651 23.9484 88.0914 25.0766 90.1959 25.7709L92.3222 26.4869C93.7758 26.9859 94.9691 27.4632 94.9691 29.0254C94.9691 30.4573 93.7324 31.0214 91.8448 31.0214C89.9356 31.0214 87.8961 30.4573 86.7245 29.7196L85.8132 32.2364C87.332 33.2128 89.263 33.6901 91.8448 33.6901C95.5332 33.6901 98.3755 32.0629 98.3755 28.6348C98.3755 25.4237 95.9238 24.404 93.4504 23.5795L91.1506 22.8202C90.1525 22.4947 89.3931 22.0391 89.3931 20.759C89.3931 19.4572 90.4563 18.9365 92.0618 18.9365C94.0145 18.8714 95.5332 19.2403 96.6614 19.9346Z" fill="white"/>
</svg>
